miniprogram/assets/figma/grid-shield-user.svg

<svg width="24" height="24" viewBox="0 0 24 24" fill="none" xmlns="http://www.w3.org/2000/svg">
<path d="M12.0001 14.3501C10.8317 14.3501 9.79159 15.1568 9.52644 16.187C9.42319 16.5882 9.0143 16.8297 8.61316 16.7264C8.21202 16.6232 7.97053 16.2143 8.07378 15.8132C8.51909 14.083 10.1864 12.8501 12.0001 12.8501C13.8138 12.8501 15.4811 14.083 15.9264 15.8132C16.0297 16.2143 15.7882 16.6232 15.3871 16.7264C14.9859 16.8297 14.577 16.5882 14.4738 16.187C14.2086 15.1568 13.1685 14.3501 12.0001 14.3501Z" fill="#9CA3AF"/>
<path fill-rule="evenodd" clip-rule="evenodd" d="M12.0001 7.25C10.5917 7.25 9.45007 8.39167 9.45007 9.8C9.45007 11.2083 10.5917 12.35 12.0001 12.35C13.4084 12.35 14.5501 11.2083 14.5501 9.8C14.5501 8.39167 13.4084 7.25 12.0001 7.25ZM10.9501 9.8C10.9501 9.2201 11.4202 8.75 12.0001 8.75C12.58 8.75 13.0501 9.2201 13.0501 9.8C13.0501 10.3799 12.58 10.85 12.0001 10.85C11.4202 10.85 10.9501 10.3799 10.9501 9.8Z" fill="#9CA3AF"/>
<path fill-rule="evenodd" clip-rule="evenodd" d="M10.0776 1.21257C11.285 0.60079 12.7116 0.600688 13.919 1.21229L21.0167 4.80744C21.7732 5.19063 22.25 5.96662 22.25 6.81464V8.83929C22.25 9.34079 22.1488 10.3274 22.0344 11.2977C21.7672 13.5642 20.8916 15.7017 19.573 17.541C18.0478 19.6687 16.0449 21.4093 13.7253 22.623L12.9749 23.0156C12.3632 23.3357 11.6335 23.3357 11.0218 23.0157L10.2731 22.6241C7.95128 21.4097 5.94702 19.6671 4.42162 17.5367C3.10653 15.7 2.23322 13.5662 1.96632 11.3039C1.85159 10.3314 1.75 9.34177 1.75 8.83929V6.81449C1.75 5.96659 2.22667 5.19068 2.98302 4.80744L10.0776 1.21257ZM13.2412 2.55042C12.4599 2.15468 11.5369 2.15474 10.7556 2.5506L3.66101 6.14547C3.40889 6.27322 3.25 6.53186 3.25 6.81449V8.83929C3.25 9.23528 3.33813 10.1292 3.45599 11.1282C3.69102 13.1203 4.46232 15.0169 5.64123 16.6634C7.02993 18.603 8.85458 20.1894 10.9683 21.295L11.717 21.6866C11.8932 21.7787 12.1033 21.7787 12.2795 21.6866L13.0299 21.2939C15.1418 20.1889 16.9652 18.6042 18.3539 16.6671C19.536 15.0181 20.3094 13.118 20.5447 11.1221C20.6622 10.1254 20.75 9.23439 20.75 8.83929V6.81464C20.75 6.53196 20.5911 6.2733 20.3389 6.14557L13.2412 2.55042Z" fill="#9CA3AF"/>
</svg>

<svg xmlns="http://www.w3.org/2000/svg" width="24" height="24" fill="none" viewBox="0 0 24 24"><path fill="#9ca3af" d="M12 14.35c-1.168 0-2.208.807-2.474 1.837a.75.75 0 1 1-1.452-.374c.445-1.73 2.112-2.963 3.926-2.963s3.481 1.233 3.926 2.963a.75.75 0 1 1-1.452.374c-.265-1.03-1.306-1.837-2.474-1.837"/><path fill="#9ca3af" fill-rule="evenodd" d="M12 7.25a2.55 2.55 0 1 0 0 5.1 2.55 2.55 0 0 0 0-5.1M10.95 9.8a1.05 1.05 0 1 1 2.1 0 1.05 1.05 0 0 1-2.1 0" clip-rule="evenodd"/><path fill="#9ca3af" fill-rule="evenodd" d="M10.078 1.213a4.25 4.25 0 0 1 3.841 0l7.098 3.594a2.25 2.25 0 0 1 1.233 2.008v2.024c0 .502-.101 1.488-.216 2.459-.267 2.266-1.142 4.404-2.461 6.243a16.75 16.75 0 0 1-5.848 5.082l-.75.393c-.612.32-1.341.32-1.953 0l-.749-.392a16.74 16.74 0 0 1-5.851-5.087c-1.315-1.837-2.189-3.97-2.456-6.233-.114-.973-.216-1.962-.216-2.465V6.814a2.25 2.25 0 0 1 1.233-2.007zM13.24 2.55a2.75 2.75 0 0 0-2.485 0L3.66 6.146a.75.75 0 0 0-.411.67V8.84c0 .396.088 1.29.206 2.29.235 1.991 1.006 3.888 2.185 5.534a15.24 15.24 0 0 0 5.327 4.632l.749.392a.6.6 0 0 0 .563 0l.75-.393a15.25 15.25 0 0 0 5.324-4.627c1.182-1.649 1.955-3.549 2.19-5.545.118-.997.206-1.888.206-2.283V6.815a.75.75 0 0 0-.411-.67z" clip-rule="evenodd"/></svg>
